static/images/logos/trusted-by/deloitte.svg

<svg xmlns="http://www.w3.org/2000/svg" width="103" height="20" viewBox="0 0 103 20" fill="none">
    <path d="M97.4395 17.2809C97.4395 15.7952 98.6617 14.5898 100.166 14.5898C101.672 14.5898 102.893 15.7952 102.893 17.2809C102.893 18.7665 101.672 19.9711 100.166 19.9711C98.6617 19.9711 97.4395 18.7665 97.4395 17.2809Z" fill="#ADADB0"/>
    <path d="M10.4667 10.1532C10.4667 8.44874 10.1329 7.18422 9.46535 6.3604C8.79695 5.53738 7.78447 5.12625 6.42331 5.12625H4.97534V15.5493H6.08316C7.59508 15.5493 8.70303 15.107 9.40848 14.2193C10.1131 13.3332 10.4667 11.9776 10.4667 10.1532ZM15.6305 9.97567C15.6305 13.0809 14.7846 15.4737 13.0928 17.1533C11.4009 18.8335 9.02263 19.6737 5.95694 19.6737H0V1.06641H6.37276C9.32873 1.06641 11.6108 1.83025 13.219 3.35718C14.8264 4.88488 15.6305 7.09002 15.6305 9.97567Z" fill="#ADADB0"/>
    <path d="M32.1309 19.6735H36.871V0.988281H32.1309V19.6735Z" fill="#ADADB0"/>
    <path d="M43.5303 12.7058C43.5303 13.8971 43.688 14.8058 44.0029 15.4302C44.3186 16.0555 44.8472 16.3677 45.5905 16.3677C46.326 16.3677 46.846 16.0555 47.149 15.4302C47.452 14.8058 47.6027 13.8971 47.6027 12.7058C47.6027 11.5207 47.4496 10.6268 47.1428 10.0233C46.835 9.41831 46.3103 9.11541 45.5662 9.11541C44.8387 9.11541 44.3186 9.41677 44.0029 10.0163C43.688 10.6167 43.5303 11.5129 43.5303 12.7058ZM52.4274 12.7058C52.4274 14.9756 51.8244 16.7462 50.6155 18.0154C49.4074 19.2854 47.7164 19.9206 45.5424 19.9206C43.4577 19.9206 41.7981 19.2713 40.5664 17.9726C39.3331 16.6737 38.7168 14.9187 38.7168 12.7058C38.7168 10.443 39.3205 8.68483 40.5294 7.43121C41.7383 6.17759 43.4332 5.55078 45.6158 5.55078C46.9644 5.55078 48.1575 5.84123 49.1913 6.42133C50.2258 7.00141 51.0244 7.83223 51.5854 8.91455C52.1473 9.99531 52.4274 11.2598 52.4274 12.7058Z" fill="#ADADB0"/>
    <path d="M54.3105 19.6762H59.0515V12.5252V5.79688H54.3105V19.6762Z" fill="#ADADB0"/>
    <path d="M54.3086 4.1161H59.0495V0.988281H54.3086V4.1161Z" fill="#ADADB0"/>
    <path d="M68.6549 16.136C69.2949 16.136 70.057 15.9756 70.9464 15.6572V19.1494C70.3071 19.4266 69.6997 19.6251 69.122 19.7427C68.5444 19.8619 67.8665 19.921 67.0909 19.921C65.4993 19.921 64.3518 19.5262 63.6471 18.7383C62.9456 17.9503 62.5938 16.7403 62.5938 15.1074V9.38595H60.9336V5.79794H62.5938V2.25353L67.371 1.43359V5.79794H70.3957V9.38595H67.371V14.7883C67.371 15.6868 67.7995 16.136 68.6549 16.136Z" fill="#ADADB0"/>
    <path d="M79.6283 16.136C80.2682 16.136 81.0306 15.9756 81.92 15.6572V19.1494C81.2815 19.4266 80.673 19.6251 80.0955 19.7427C79.517 19.8619 78.8416 19.921 78.0642 19.921C76.4727 19.921 75.3254 19.5262 74.6223 18.7383C73.9192 17.9503 73.5673 16.7403 73.5673 15.1074V9.38595H71.9062V5.79794H73.5673V2.19981L78.3437 1.43359V5.79794H81.3698V9.38595H78.3437V14.7883C78.3437 15.6868 78.7721 16.136 79.6283 16.136Z" fill="#ADADB0"/>
    <path d="M87.9018 11.0145C87.9664 10.2546 88.1867 9.69785 88.5623 9.34201C88.9395 8.98695 89.4051 8.80943 89.9622 8.80943C90.5698 8.80943 91.0527 9.00875 91.4109 9.41053C91.7716 9.80997 91.9594 10.3449 91.9744 11.0145H87.9018ZM94.587 7.18674C93.4602 6.09663 91.8615 5.55078 89.7933 5.55078C87.6192 5.55078 85.9464 6.17759 84.7738 7.43121C83.602 8.68483 83.0156 10.4835 83.0156 12.8273C83.0156 15.097 83.6494 16.8474 84.9134 18.0761C86.1784 19.3048 87.9545 19.9199 90.2422 19.9199C91.3406 19.9199 92.2862 19.846 93.0784 19.6989C93.8659 19.5532 94.628 19.2899 95.3675 18.91L94.6391 15.7823C94.1018 15.9987 93.5904 16.1653 93.1075 16.2751C92.4099 16.4347 91.6446 16.5149 90.8113 16.5149C89.8975 16.5149 89.1763 16.2945 88.6475 15.8538C88.1189 15.4124 87.8371 14.8035 87.8048 14.0279H96.278V11.8968C96.278 9.84658 95.7147 8.27608 94.587 7.18674Z" fill="#ADADB0"/>
    <path d="M21.9212 11.0145C21.986 10.2546 22.206 9.69785 22.5817 9.34201C22.958 8.98695 23.4245 8.80943 23.9824 8.80943C24.5885 8.80943 25.0713 9.00875 25.4304 9.41053C25.791 9.80997 25.978 10.3449 25.9947 11.0145H21.9212ZM28.6072 7.18674C27.4797 6.09663 25.8817 5.55078 23.8127 5.55078C21.638 5.55078 19.9658 6.17759 18.7939 7.43121C17.6222 8.68483 17.0352 10.4835 17.0352 12.8273C17.0352 15.097 17.668 16.8474 18.9338 18.0761C20.1978 19.3048 21.9741 19.9199 24.2617 19.9199C25.3601 19.9199 26.3054 19.846 27.0976 19.6989C27.8852 19.5532 28.6476 19.2899 29.3878 18.91L28.6587 15.7823C28.1212 15.9987 27.6098 16.1653 27.1277 16.2751C26.4286 16.4347 25.6639 16.5149 24.8306 16.5149C23.9176 16.5149 23.1957 16.2945 22.667 15.8538C22.1375 15.4124 21.8565 14.8035 21.8243 14.0279H30.2976V11.8968C30.2976 9.84658 29.7341 8.27608 28.6072 7.18674Z" fill="#ADADB0"/>
</svg>

<svg xmlns="http://www.w3.org/2000/svg" width="103" height="20" fill="none"><path fill="#ADADB0" d="M97.44 17.28c0-1.485 1.222-2.69 2.726-2.69 1.506 0 2.727 1.205 2.727 2.69 0 1.486-1.221 2.691-2.727 2.691-1.504 0-2.727-1.204-2.727-2.69ZM10.467 10.153c0-1.704-.334-2.969-1.002-3.793-.668-.823-1.68-1.234-3.042-1.234H4.975V15.55h1.108c1.512 0 2.62-.442 3.325-1.33.705-.886 1.059-2.241 1.059-4.066Zm5.163-.177c0 3.105-.845 5.498-2.537 7.177-1.692 1.68-4.07 2.52-7.136 2.52H0V1.067h6.373c2.956 0 5.238.764 6.846 2.291 1.607 1.528 2.412 3.733 2.412 6.619ZM32.13 19.674h4.741V.988h-4.74v18.686ZM43.53 12.706c0 1.191.158 2.1.473 2.724.316.625.844.938 1.587.938.736 0 1.256-.313 1.559-.938.303-.624.454-1.533.454-2.724 0-1.185-.153-2.08-.46-2.683-.308-.605-.833-.908-1.577-.908-.727 0-1.247.302-1.563.901-.315.6-.473 1.497-.473 2.69Zm8.897 0c0 2.27-.603 4.04-1.812 5.31-1.208 1.27-2.899 1.905-5.073 1.905-2.084 0-3.744-.65-4.976-1.948-1.233-1.3-1.85-3.054-1.85-5.267 0-2.263.605-4.021 1.813-5.275 1.21-1.253 2.904-1.88 5.087-1.88 1.348 0 2.541.29 3.575.87a5.906 5.906 0 0 1 2.394 2.494c.562 1.08.842 2.345.842 3.79ZM54.31 19.676h4.741V5.796h-4.74v13.88ZM54.309 4.116h4.74V.988h-4.74v3.128ZM68.655 16.136c.64 0 1.402-.16 2.291-.479v3.492a9.252 9.252 0 0 1-1.824.594c-.578.119-1.255.178-2.031.178-1.592 0-2.74-.395-3.444-1.183-.701-.788-1.053-1.998-1.053-3.63V9.385h-1.66V5.798h1.66V2.254l4.777-.82v4.364h3.025v3.588H67.37v5.402c0 .899.428 1.348 1.284 1.348ZM79.628 16.136c.64 0 1.403-.16 2.292-.479v3.492a9.24 9.24 0 0 1-1.825.594c-.578.119-1.253.178-2.03.178-1.592 0-2.74-.395-3.443-1.183-.703-.788-1.055-1.998-1.055-3.63V9.385h-1.66V5.798h1.66V2.2l4.777-.766v4.364h3.026v3.588h-3.026v5.402c0 .899.428 1.348 1.284 1.348ZM87.902 11.014c.064-.76.285-1.316.66-1.672.377-.355.843-.533 1.4-.533.608 0 1.09.2 1.449.602.36.399.548.934.563 1.604h-4.072Zm6.685-3.827c-1.127-1.09-2.725-1.636-4.794-1.636-2.174 0-3.847.627-5.02 1.88-1.171 1.254-1.757 3.052-1.757 5.396 0 2.27.633 4.02 1.897 5.25 1.265 1.228 3.041 1.843 5.33 1.843 1.098 0 2.043-.074 2.835-.221a8.287 8.287 0 0 0 2.29-.789l-.729-3.128c-.537.217-1.049.383-1.531.493-.698.16-1.463.24-2.297.24-.914 0-1.635-.22-2.164-.661-.528-.442-.81-1.05-.842-1.826h8.473v-2.131c0-2.05-.563-3.62-1.691-4.71ZM21.921 11.014c.065-.76.285-1.316.66-1.672.377-.355.843-.533 1.401-.533.607 0 1.09.2 1.448.602.361.399.548.934.565 1.604H21.92Zm6.686-3.827c-1.127-1.09-2.725-1.636-4.794-1.636-2.175 0-3.847.627-5.02 1.88-1.17 1.254-1.758 3.052-1.758 5.396 0 2.27.633 4.02 1.899 5.25 1.264 1.228 3.04 1.843 5.328 1.843 1.098 0 2.043-.074 2.836-.221a8.3 8.3 0 0 0 2.29-.789l-.73-3.128c-.537.217-1.048.383-1.53.493-.7.16-1.464.24-2.297.24-.913 0-1.635-.22-2.164-.661-.53-.442-.81-1.05-.843-1.826h8.474v-2.131c0-2.05-.564-3.62-1.69-4.71Z"/></svg>
